X: 1
T: Hanly's
M: 4/4
L: 1/8
R: reel
K: Cmaj
G2EG A2GA|cded cAA2|G2EG A2GA|cAGE EDD2:|
egga gede|~g2ag ged2|egga gede|cded cA~A2|
egga gede|~g2ag geda|~a2ea agea|gede cA~A2|
